X:1
T:Billy, The Kid's
R:reel
B:Ryan's Mammoth Collection
N:113 636
Z:Contributed by Ray Davies,  ray:davies99.freeserve.co.uk
M:2/4
L:1/16
K:A
v"1"A,4 "1"^G,4  | z3/2uA,/v(C3/2.E/) u"4"A4  | (B>.A)(G>.B) (A>.c)(e>.a)|\
 (3gfe (3dcB (3AGF (3EDB, |
uA,4 ^G,4  | z3/2uA,/(C3/2.E/) A4  | (B>.A)(G>.B) (A>.c)(e>.a) |\
 (3gfe (3dcB A2 z2 :|
|:vauAzua aAzua | va>u=gu(e>.f) g4  | (3v=GBd (g>.a) g4  |\
 u(3Bd=g (a>.b) a4  |
  vaAzua aAzua | va>u=g(e>.f) g4  | va>f=g>e f>d"4"e>d |\
 B>"4"ed>B A4  :|
